local/share/icons/dracula-icons-main/scalable/apps/distributor-logo-budgie.svg

<?xml version="1.0" encoding="UTF-8"?>
<svg xmlns="http://www.w3.org/2000/svg" xmlns:xlink="http://www.w3.org/1999/xlink" width="64" height="64" viewBox="0 0 64 64">
<path fill-rule="nonzero" fill="rgb(23.921569%, 25.882353%, 30.588235%)" fill-opacity="1" d="M 8.378906 1.324219 C 10.953125 1.292969 13.34375 2.648438 14.640625 4.871094 C 15.933594 7.09375 15.933594 9.839844 14.640625 12.0625 C 13.34375 14.285156 10.953125 15.640625 8.378906 15.609375 C 4.46875 15.5625 1.324219 12.378906 1.324219 8.464844 C 1.324219 4.554688 4.46875 1.371094 8.378906 1.324219 Z M 8.378906 1.324219 "/>
<path fill-rule="nonzero" fill="rgb(100%, 100%, 100%)" fill-opacity="1" d="M 9.792969 5.367188 C 9.367188 5.351562 8.875 5.421875 8.589844 5.558594 C 7.40625 6.050781 6.808594 8.128906 5.558594 8.007812 C 5.125 7.953125 4.785156 7.726562 4.53125 7.3125 C 4.121094 7.441406 4.179688 8.4375 4.429688 8.957031 C 5.445312 11.039062 7.324219 11.9375 9.449219 11.429688 C 11.089844 10.9375 12.1875 9.691406 12.328125 8.125 C 12.339844 8.039062 12.347656 7.976562 12.351562 7.90625 C 12.378906 7.820312 12.433594 7.785156 12.546875 7.714844 C 12.753906 7.585938 12.757812 7.535156 12.515625 7.453125 C 12.371094 7.402344 12.304688 7.359375 12.199219 7.007812 C 11.644531 5.886719 10.691406 5.402344 9.792969 5.367188 Z M 10.410156 6.503906 C 10.546875 6.496094 10.675781 6.566406 10.742188 6.679688 C 10.8125 6.796875 10.8125 6.941406 10.742188 7.058594 C 10.675781 7.171875 10.546875 7.242188 10.410156 7.234375 C 10.210938 7.234375 10.046875 7.070312 10.046875 6.867188 C 10.046875 6.667969 10.210938 6.503906 10.410156 6.503906 Z M 10.535156 6.648438 C 10.488281 6.644531 10.445312 6.667969 10.421875 6.707031 C 10.398438 6.746094 10.398438 6.796875 10.421875 6.835938 C 10.445312 6.875 10.488281 6.898438 10.535156 6.894531 C 10.597656 6.886719 10.648438 6.835938 10.648438 6.773438 C 10.648438 6.707031 10.597656 6.65625 10.535156 6.648438 Z M 7.90625 8.027344 C 7.945312 8.03125 7.984375 8.035156 8.023438 8.042969 C 8.277344 8.089844 8.546875 8.378906 8.578125 8.640625 C 8.609375 8.894531 8.433594 9.226562 8.199219 9.359375 C 8.03125 9.453125 7.636719 9.503906 7.320312 9.476562 C 7.042969 9.449219 6.410156 9.316406 6.230469 9.25 L 6.074219 9.1875 L 6.507812 8.976562 C 6.871094 8.800781 6.980469 8.714844 7.1875 8.449219 C 7.421875 8.140625 7.636719 8.015625 7.90625 8.027344 Z M 7.90625 8.027344 "/>
</svg>

<svg width="64" height="64" version="1.1" viewBox="0 0 16.933 16.933" xmlns="http://www.w3.org/2000/svg">
 <g transform="matrix(1.0385 0 0 1.0385 -.41232 -.32567)" stroke-width=".92729">
  <path d="m8.467 1.588a6.879 6.879 0 1 1 0 13.757 6.879 6.879 0 0 1 0-13.757z" fill="#3d424e"/>
 </g>
 <path d="M9.793 5.367c-.427-.015-.917.055-1.205.19-1.182.493-1.778 2.57-3.028 2.45-.435-.052-.773-.28-1.03-.695-.407.13-.35 1.126-.099 1.644 1.013 2.082 2.894 2.982 5.018 2.473 1.642-.491 2.738-1.736 2.88-3.303.011-.087.017-.15.023-.218.026-.088.08-.122.196-.194.207-.128.209-.177-.033-.26-.145-.05-.212-.093-.314-.445-.558-1.123-1.51-1.605-2.408-1.642zm.619 1.138a.365.365 0 1 1 0 .729.365.365 0 0 1 0-.73zm.124.145a.122.122 0 1 0 0 .243.122.122 0 0 0 0-.243zM7.905 8.028a.751.751 0 0 1 .119.014c.254.048.523.338.554.6.03.254-.144.584-.38.716-.167.094-.563.146-.878.117-.276-.027-.91-.158-1.09-.226l-.156-.06.434-.212c.362-.176.474-.263.678-.528.236-.307.45-.435.719-.421z" fill="#fff"/>
</svg>
